!!!COM:	Josquin des Pres?
**kern	**kern
*part2	*part1
*staff2	*staff1
*clefGv2	*clefG2
*k[b-]	*k[b-]
*M2/1	*M2/1
=1-	=1-
0d	0r
=2	=2
1d	0r
1d	.
=3	=3
1.f	0a
4e	.
4d	.
=4	=4
2c	1a
2.d	.
.	1a
4e	.
[2f	.
=5	=5
2f]	1.cc
4e	.
4d	.
2c	.
2d	4b-
.	4a
=6	=6
1e	2.g
.	4a
1d	1b-
=7	=7
2r	[0a
1d	.
4c	.
4B-	.
=8	=8
2c	0a]
2d	.
2A	.
[2d	.
=9	=9
2d]	2r
4c	1a
4B-	.
2c	.
2d	4g
.	4f
=10	=10
1e	2.g
.	4a
2d	2.b-
[2g	.
.	4g
=11	=11
2g]	4a
.	4b-
2f	4cc
.	4a
2g	2.b-
4f	.
4e	4g
=12	=12
0d	2a
.	2.b-
.	8aL
.	8gJ
.	2a
=13	=13
2r	2.b-
2.d	.
.	8aL
.	8gJ
.	2a
4c	.
4B-	[2b-
4A	.
=14	=14
2G	4b-]
.	4g
2.d	2a
.	2.b-
4G	.
2d	.
.	8aL
.	8gJ
=15	=15
2c	2a
2B-	1g
1A	.
.	2f
=16	=16
1G	0g
2r	.
[2G	.
=17	=17
2G]	1r
2A	.
2B-	2r
[2c	[2g
=18	=18
2c]	2g]
4B-	2a
4A	.
2G	2b-
4F	[2cc
4G	.
=19	=19
4A	2cc]
4B-	.
4c	4b-
4d	4a
2e	2g
[2f	[2a
=20	=20
4f]	4a]
4e	4g
1d	2f
.	1e
2c	.
=21	=21
1d	0d
2r	.
2d	.
=22	=22
2d	2r
1f	2a
.	2a
4e	[2cc
4d	.
=23	=23
0c	2cc]
.	4b-
.	4a
.	2g
.	[2a
=24	=24
1d	4a]
.	4g
.	4f
.	4e
[1f	4d
.	4e
.	4f
.	4g
=25	=25
2f]	4a
.	4b-
2f	1cc
2e	.
2d	2b-
=26	=26
1f	2a
.	1cc
2e	.
2d	2b-
=27	=27
2.f	2a
.	2.cc
4e	.
2c	.
.	4b-
[2d	4a
.	4g
=28	=28
2d]	2f
2c	1a
2.d	.
.	4g
8cL	4f
8B-J	.
=29	=29
2c	2e
2.d	4d
.	4e
.	4f
8cL	4g
8B-J	.
2c	[2a
=30	=30
2.d	4a]
.	4g
.	1g
8cL	.
8B-J	.
1A	.
.	2f
=31	=31
0G	0g
==	==
*-	*-
